static/assets/head_icons_png/man/bizi/1005891.svg

<svg xmlns="http://www.w3.org/2000/svg" width="14" height="22"><g><radialGradient id="a" gradientUnits="userSpaceOnUse" gradientTransform="matrix(.00154 .0001 .00021 .00674 4.7 8.75)" spreadMethod="pad" cx="0" cy="0" r="819.2" fx="0" fy="0"><stop offset=".314" stop-color="#fff" stop-opacity=".431"/><stop offset="1" stop-color="#fff" stop-opacity="0"/></radialGradient><path d="M5.25 4.9l.4 3.95-.15 3.8-.15.85-.1.1-.45.65-.45-.7v-.15l-.3-.8q-.3-1.65-.35-3.9-.05-2.3.2-3.85.2-1.6.65-1.5.4-.05.7 1.55" fill="url(#a)"/><radialGradient id="b" gradientUnits="userSpaceOnUse" gradientTransform="matrix(.00119 .00003 -.00003 .00134 4.55 16.1)" spreadMethod="pad" cx="0" cy="0" r="819.2" fx="0" fy="0"><stop offset=".314" stop-color="#fff" stop-opacity=".431"/><stop offset="1" stop-color="#fff" stop-opacity="0"/></radialGradient><path d="M3.95 16.75l-.25-.7q0-.45.25-.75.3-.3.7-.25.4-.05.7.25l.25.85-.35.7q-.3.3-.65.3l-.65-.4" fill="url(#b)"/><radialGradient id="c" gradientUnits="userSpaceOnUse" gradientTransform="matrix(.0055 -.0001 .00092 .00908 7.85 8.3)" spreadMethod="pad" cx="0" cy="0" r="819.2" fx="0" fy="0"><stop offset=".337" stop-color="#f9c29f"/><stop offset="1" stop-color="#fedec1" stop-opacity="0"/></radialGradient><path d="M13.45 10.55q-.15 1.5-3.3 2.2-1 .15-1.85 1.8v.1l-.1-.25q-.6-2.65-.45-5.5.15-2.8.9-7.1l.05.95-.05-1.05q1.6 5.2 3.6 6.4l1 .75q.3.5.2 1.7" fill="url(#c)"/><radialGradient id="d" gradientUnits="userSpaceOnUse" gradientTransform="matrix(.00409 -.00003 .00003 .0046 5.25 22.4)" spreadMethod="pad" cx="0" cy="0" r="819.2" fx="0" fy="0"><stop offset="0" stop-color="#f39b61"/><stop offset="1" stop-color="#f8be98"/></radialGradient><path d="M7.4 14.55v.3l-1 2.25q.4-.9.2-3.05-.25-2.15-.2-6.2 0-4.1.75-6.1Q7.85-.3 9.4.05 8 6.6 8.3 9.55l.55 4.8-1.45.2" fill="url(#d)"/><radialGradient id="e" gradientUnits="userSpaceOnUse" gradientTransform="matrix(.00409 -.00003 .00003 .0046 5.4 21.5)" spreadMethod="pad" cx="0" cy="0" r="819.2" fx="0" fy="0"><stop offset="0" stop-color="#f39b61"/><stop offset="1" stop-color="#f8be98"/></radialGradient><path d="M6.4 17.1l1-2.25v-.3l1.45-.2.8 3.65-2.05 1.6q-2.95 2.3-3.65 1.5l-2.8-1.75-1-.6Q-.4 18.4.8 17q1.45.2 2.25.9.75.65 1.3.7l1.1-.3.95-1.2" fill="url(#e)"/><path d="M6.55 18.95l-.3.2-.5.9-.35.25-.5.1H4l.55-.1q.5 0 1-.45L6 19.2v-.05l.7-.65.95-.4.6.05q-.6.6-1.1.65l-.6.15m-3 .9l-.05-.05-.35-.3-.15-.1-.4-.2-1.2-.7.05-.05q.35-.35 1 .15l.35.25.75.95v.05" fill="#823909"/></g></svg>

<?xml version="1.0" encoding="utf-8"?>
<svg version="1.1" id="Layer_1"
xmlns="http://www.w3.org/2000/svg"
xmlns:xlink="http://www.w3.org/1999/xlink"
xmlns:author="http://www.sothink.com"
width="14px" height="22px"
xml:space="preserve">
<g id="450" transform="matrix(1, 0, 0, 1, 0, 0)">
<radialGradient
id="RadialGradID_3974" gradientUnits="userSpaceOnUse" gradientTransform="matrix(0.00154114, 9.15527e-005, 0.000213623, 0.00674438, 4.7, 8.75)" spreadMethod ="pad" cx="0" cy="0" r="819.2" fx="0" fy="0" >
<stop  offset="0.313725"  style="stop-color:#FFFFFF;stop-opacity:0.431373" />
<stop  offset="1"  style="stop-color:#FFFFFF;stop-opacity:0" />
</radialGradient>
<path style="fill:url(#RadialGradID_3974) " d="M5.25,4.9L5.65 8.85L5.5 12.65L5.35 13.5L5.25 13.6L4.8 14.25L4.35 13.55L4.35 13.4L4.05 12.6Q3.75 10.95 3.7 8.7Q3.65 6.4 3.9 4.85Q4.1 3.25 4.55 3.35Q4.95 3.3 5.25 4.9" />
<radialGradient
id="RadialGradID_3975" gradientUnits="userSpaceOnUse" gradientTransform="matrix(0.00119019, 3.05176e-005, -3.05176e-005, 0.00134277, 4.55, 16.1)" spreadMethod ="pad" cx="0" cy="0" r="819.2" fx="0" fy="0" >
<stop  offset="0.313725"  style="stop-color:#FFFFFF;stop-opacity:0.431373" />
<stop  offset="1"  style="stop-color:#FFFFFF;stop-opacity:0" />
</radialGradient>
<path style="fill:url(#RadialGradID_3975) " d="M3.95,16.75L3.7 16.05Q3.7 15.6 3.95 15.3Q4.25 15 4.65 15.05Q5.05 15 5.35 15.3L5.6 16.15L5.25 16.85Q4.95 17.15 4.6 17.15L3.95 16.75" />
<radialGradient
id="RadialGradID_3976" gradientUnits="userSpaceOnUse" gradientTransform="matrix(0.00549316, -9.15527e-005, 0.000915527, 0.00907898, 7.85, 8.3)" spreadMethod ="pad" cx="0" cy="0" r="819.2" fx="0" fy="0" >
<stop  offset="0.337255"  style="stop-color:#F9C29F;stop-opacity:1" />
<stop  offset="1"  style="stop-color:#FEDEC1;stop-opacity:0" />
</radialGradient>
<path style="fill:url(#RadialGradID_3976) " d="M13.45,10.55Q13.3 12.05 10.15 12.75Q9.15 12.9 8.3 14.55L8.3 14.6L8.3 14.65L8.2 14.4Q7.6 11.75 7.75 8.9Q7.9 6.1 8.65 1.8L8.7 2.75L8.65 1.7Q10.25 6.9 12.25 8.1L13.25 8.85Q13.55 9.35 13.45 10.55" />
<radialGradient
id="RadialGradID_3977" gradientUnits="userSpaceOnUse" gradientTransform="matrix(0.00408936, -3.05176e-005, 3.05176e-005, 0.00460815, 5.25, 22.4)" spreadMethod ="pad" cx="0" cy="0" r="819.2" fx="0" fy="0" >
<stop  offset="0"  style="stop-color:#F39B61;stop-opacity:1" />
<stop  offset="1"  style="stop-color:#F8BE98;stop-opacity:1" />
</radialGradient>
<path style="fill:url(#RadialGradID_3977) " d="M7.4,14.55L7.4 14.85L6.4 17.1Q6.8 16.2 6.6 14.05Q6.35 11.9 6.4 7.85Q6.4 3.75 7.15 1.75Q7.85 -0.3 9.4 0.05Q8 6.6 8.3 9.55L8.85 14.35L7.4 14.55" />
<radialGradient
id="RadialGradID_3978" gradientUnits="userSpaceOnUse" gradientTransform="matrix(0.00408936, -3.05176e-005, 3.05176e-005, 0.00460815, 5.4, 21.5)" spreadMethod ="pad" cx="0" cy="0" r="819.2" fx="0" fy="0" >
<stop  offset="0"  style="stop-color:#F39B61;stop-opacity:1" />
<stop  offset="1"  style="stop-color:#F8BE98;stop-opacity:1" />
</radialGradient>
<path style="fill:url(#RadialGradID_3978) " d="M6.4,17.1L7.4 14.85L7.4 14.55L8.85 14.35L9.65 18L7.6 19.6Q4.65 21.9 3.95 21.1L1.15 19.35L0.15 18.75Q-0.4 18.4 0.8 17Q2.25 17.2 3.05 17.9Q3.8 18.55 4.35 18.6L5.45 18.3L6.4 17.1" />
<path style="fill:#823909;fill-opacity:1" d="M6.55,18.95L6.25 19.15L5.75 20.05L5.4 20.3L4.9 20.4L4.05 20.4L4 20.4L4.55 20.3Q5.05 20.3 5.55 19.85L6 19.2L6 19.15L6.7 18.5L7.65 18.1L8.25 18.15Q7.65 18.75 7.15 18.8L6.55 18.95M3.55,19.85L3.5 19.8L3.15 19.5L3 19.4L2.6 19.2L1.4 18.5L1.45 18.45Q1.8 18.1 2.45 18.6L2.8 18.85L3.55 19.8L3.55 19.85" />
</g>
</svg>
